assets/images/instagram.svg

<svg width="202" height="202" viewBox="0 0 202 202" fill="none" xmlns="http://www.w3.org/2000/svg">
<rect x="0.5" y="0.5" width="201" height="201" rx="4.5" fill="#FAFAFA" stroke="#121212"/>
<path d="M101 59.6265C114.386 59.6265 116.211 59.6265 121.687 59.6265C126.554 59.6265 128.988 60.8434 130.813 61.4518C133.247 62.6687 135.072 63.2771 136.898 65.1024C138.723 66.9277 139.94 68.753 140.548 71.1868C141.157 73.0121 141.765 75.4458 142.373 80.3133C142.373 85.7892 142.373 87.006 142.373 101C142.373 114.994 142.373 116.211 142.373 121.687C142.373 126.554 141.157 128.988 140.548 130.813C139.331 133.247 138.723 135.072 136.898 136.898C135.072 138.723 133.247 139.94 130.813 140.548C128.988 141.157 126.554 141.765 121.687 142.373C116.211 142.373 114.994 142.373 101 142.373C87.006 142.373 85.7892 142.373 80.3133 142.373C75.4458 142.373 73.0121 141.157 71.1868 140.548C68.753 139.331 66.9277 138.723 65.1024 136.898C63.2771 135.072 62.0602 133.247 61.4518 130.813C60.8434 128.988 60.2349 126.554 59.6265 121.687C59.6265 116.211 59.6265 114.994 59.6265 101C59.6265 87.006 59.6265 85.7892 59.6265 80.3133C59.6265 75.4458 60.8434 73.0121 61.4518 71.1868C62.6687 68.753 63.2771 66.9277 65.1024 65.1024C66.9277 63.2771 68.753 62.0602 71.1868 61.4518C73.0121 60.8434 75.4458 60.2349 80.3133 59.6265C85.7892 59.6265 87.6145 59.6265 101 59.6265ZM101 50.5C87.006 50.5 85.7892 50.5 80.3133 50.5C74.8374 50.5 71.1868 51.7169 68.1446 52.9337C65.1024 54.1506 62.0602 55.9759 59.0181 59.0181C55.9759 62.0602 54.759 64.494 52.9337 68.1446C51.7169 71.1868 51.1084 74.8374 50.5 80.3133C50.5 85.7892 50.5 87.6145 50.5 101C50.5 114.994 50.5 116.211 50.5 121.687C50.5 127.163 51.7169 130.813 52.9337 133.855C54.1506 136.898 55.9759 139.94 59.0181 142.982C62.0602 146.024 64.494 147.241 68.1446 149.066C71.1868 150.283 74.8374 150.892 80.3133 151.5C85.7892 151.5 87.6145 151.5 101 151.5C114.386 151.5 116.211 151.5 121.687 151.5C127.163 151.5 130.813 150.283 133.855 149.066C136.898 147.849 139.94 146.024 142.982 142.982C146.024 139.94 147.241 137.506 149.066 133.855C150.283 130.813 150.892 127.163 151.5 121.687C151.5 116.211 151.5 114.386 151.5 101C151.5 87.6145 151.5 85.7892 151.5 80.3133C151.5 74.8374 150.283 71.1868 149.066 68.1446C147.849 65.1024 146.024 62.0602 142.982 59.0181C139.94 55.9759 137.506 54.759 133.855 52.9337C130.813 51.7169 127.163 51.1084 121.687 50.5C116.211 50.5 114.994 50.5 101 50.5Z" fill="#121212"/>
<path d="M101 74.8374C86.3976 74.8374 74.8374 86.3976 74.8374 101C74.8374 115.602 86.3976 127.163 101 127.163C115.602 127.163 127.163 115.602 127.163 101C127.163 86.3976 115.602 74.8374 101 74.8374ZM101 118.036C91.8735 118.036 83.9639 110.735 83.9639 101C83.9639 91.8735 91.2651 83.9639 101 83.9639C110.127 83.9639 118.036 91.2651 118.036 101C118.036 110.127 110.127 118.036 101 118.036Z" fill="#121212"/>
<path d="M127.771 80.3133C131.131 80.3133 133.855 77.5892 133.855 74.2289C133.855 70.8686 131.131 68.1446 127.771 68.1446C124.411 68.1446 121.687 70.8686 121.687 74.2289C121.687 77.5892 124.411 80.3133 127.771 80.3133Z" fill="#121212"/>
</svg>

<svg width="202" height="202" fill="none" xmlns="http://www.w3.org/2000/svg"><rect x=".5" y=".5" width="201" height="201" rx="4.5" fill="#FAFAFA" stroke="#121212"/><path d="M101 59.627h20.687c4.867 0 7.301 1.216 9.126 1.825 2.434 1.217 4.259 1.825 6.085 3.65 1.825 1.826 3.042 3.651 3.65 6.085.609 1.825 1.217 4.259 1.825 9.126v41.374c0 4.867-1.216 7.301-1.825 9.126-1.217 2.434-1.825 4.259-3.65 6.085-1.826 1.825-3.651 3.042-6.085 3.65-1.825.609-4.259 1.217-9.126 1.825H80.313c-4.867 0-7.3-1.216-9.126-1.825-2.434-1.217-4.26-1.825-6.085-3.65-1.825-1.826-3.042-3.651-3.65-6.085-.609-1.825-1.217-4.259-1.825-9.126V80.313c0-4.867 1.216-7.3 1.825-9.126 1.217-2.434 1.825-4.26 3.65-6.085 1.826-1.825 3.651-3.042 6.085-3.65 1.825-.609 4.259-1.217 9.126-1.825H101Zm0-9.127H80.313c-5.476 0-9.126 1.217-12.168 2.434-3.043 1.217-6.085 3.042-9.127 6.084-3.042 3.042-4.259 5.476-6.084 9.127-1.217 3.042-1.826 6.692-2.434 12.168v41.374c0 5.476 1.217 9.126 2.434 12.168 1.217 3.043 3.042 6.085 6.084 9.127 3.042 3.042 5.476 4.259 9.127 6.084 3.042 1.217 6.692 1.826 12.168 2.434h41.374c5.476 0 9.126-1.217 12.168-2.434 3.043-1.217 6.085-3.042 9.127-6.084 3.042-3.042 4.259-5.476 6.084-9.127 1.217-3.042 1.826-6.692 2.434-12.168V80.313c0-5.476-1.217-9.126-2.434-12.168-1.217-3.043-3.042-6.085-6.084-9.127-3.042-3.042-5.476-4.259-9.127-6.084-3.042-1.217-6.692-1.826-12.168-2.434H101Z" fill="#121212"/><path d="M101 74.837c-14.602 0-26.163 11.56-26.163 26.163 0 14.602 11.56 26.163 26.163 26.163 14.602 0 26.163-11.561 26.163-26.163S115.602 74.837 101 74.837Zm0 43.199c-9.126 0-17.036-7.301-17.036-17.036 0-9.126 7.301-17.036 17.036-17.036 9.127 0 17.036 7.301 17.036 17.036 0 9.127-7.909 17.036-17.036 17.036ZM127.771 80.313a6.084 6.084 0 1 0 0-12.168 6.084 6.084 0 0 0 0 12.168Z" fill="#121212"/></svg>
